dark/Papirus-Mer/MerPlaces/folder-blue-torrent.svg

<?xml version="1.0" encoding="UTF-8" standalone="no"?>
<svg
   xmlns:dc="http://purl.org/dc/elements/1.1/"
   xmlns:cc="http://creativecommons.org/ns#"
   xmlns:rdf="http://www.w3.org/1999/02/22-rdf-syntax-ns#"
   xmlns:svg="http://www.w3.org/2000/svg"
   xmlns="http://www.w3.org/2000/svg"
   xmlns:sodipodi="http://sodipodi.sourceforge.net/DTD/sodipodi-0.dtd"
   xmlns:inkscape="http://www.inkscape.org/namespaces/inkscape"
   width="32"
   height="32"
   version="1"
   id="svg16"
   sodipodi:docname="folder-blue-torrent.svg"
   inkscape:version="0.92.4 5da689c313, 2019-01-14">
  <metadata
     id="metadata22">
    <rdf:RDF>
      <cc:Work
         rdf:about="">
        <dc:format>image/svg+xml</dc:format>
        <dc:type
           rdf:resource="http://purl.org/dc/dcmitype/StillImage" />
        <dc:title></dc:title>
      </cc:Work>
    </rdf:RDF>
  </metadata>
  <defs
     id="defs20" />
  <sodipodi:namedview
     pagecolor="#ffffff"
     bordercolor="#666666"
     borderopacity="1"
     objecttolerance="10"
     gridtolerance="10"
     guidetolerance="10"
     inkscape:pageopacity="0"
     inkscape:pageshadow="2"
     inkscape:window-width="640"
     inkscape:window-height="480"
     id="namedview18"
     showgrid="false"
     inkscape:zoom="9.362793"
     inkscape:cx="14.1309"
     inkscape:cy="16"
     inkscape:window-x="0"
     inkscape:window-y="26"
     inkscape:window-maximized="0"
     inkscape:current-layer="svg16" />
  <rect
     style="opacity:0.2"
     width="25"
     height="16"
     x="3"
     y="12"
     rx="1.25"
     ry="1.25"
     id="rect2" />
  <path
     style="fill:#ff6600"
     d="M 3,21.75 C 3,22.442 3.5575,23 4.25,23 H 26.75 C 27.442,23 28,22.442 28,21.75 V 8.25 C 28,7.5575 27.442,7 26.75,7 H 14 V 6.25 C 14,5.5575 13.443,5 12.75,5 H 4.25 C 3.5575,5 3,5.5575 3,6.25"
     id="path4" />
  <rect
     style="opacity:0.2"
     width="25"
     height="16"
     x="3"
     y="10"
     rx="1.25"
     ry="1.25"
     id="rect6" />
  <rect
     style="fill:#e4e4e4"
     width="21"
     height="10"
     x="5"
     y="9"
     rx="1.25"
     ry="1.25"
     id="rect8" />
  <rect
     style="fill:#ff6600"
     width="25"
     height="16"
     x="3"
     y="11"
     rx="1.25"
     ry="1.25"
     id="rect10" />
  <path
     style="opacity:0.1;fill:#ffffff"
     d="M 4.25 5 C 3.5575 5 3 5.5575 3 6.25 L 3 7.25 C 3 6.5575 3.5575 6 4.25 6 L 12.75 6 C 13.443 6 14 6.5575 14 7.25 L 14 8 L 26.75 8 C 27.442 8 28 8.5575 28 9.25 L 28 8.25 C 28 7.5575 27.442 7 26.75 7 L 14 7 L 14 6.25 C 14 5.5575 13.443 5 12.75 5 L 4.25 5 z"
     id="path12" />
  <path
     style="fill:#000000"
     d="M 16 13 A 6 6 0 0 0 10 19 A 6 6 0 0 0 16 25 L 28 25 L 28 24 L 19.308594 24 L 16 24 A 5 5 0 0 1 11 19 A 5 5 0 0 1 16 14 L 16 13 z M 16 15 C 13.790861 15 12 16.790861 12 19 C 12 21.209139 13.790861 23 16 23 L 28 23 L 28 22 L 16 22 C 14.343146 22 13 20.656854 13 19 C 13 17.343146 14.343146 16 16 16 C 16.3409 16.0014 16.679075 16.0608 17 16.175781 L 17 15.130859 C 16.673523 15.045224 16.337519 15.001255 16 15 z M 16 17 A 2 2 0 0 0 14 19 A 2 2 0 0 0 16 21 L 28 21 L 28 20 L 16 20 A 1 1 0 0 1 15 19 A 1 1 0 0 1 16 18 L 17.730469 18 A 2 2 0 0 0 16 17 z"
     id="path14" />
</svg>

<?xml version="1.0" encoding="utf-8"?>
<!-- Generator: Adobe Illustrator 24.0.2, SVG Export Plug-In . SVG Version: 6.00 Build 0)  -->
<svg version="1.1"
	 id="svg16" xmlns:cc="http://creativecommons.org/ns#" xmlns:dc="http://purl.org/dc/elements/1.1/" xmlns:inkscape="http://www.inkscape.org/namespaces/inkscape" xmlns:rdf="http://www.w3.org/1999/02/22-rdf-syntax-ns#" xmlns:sodipodi="http://sodipodi.sourceforge.net/DTD/sodipodi-0.dtd" xmlns:svg="http://www.w3.org/2000/svg"
	 xmlns="http://www.w3.org/2000/svg" xmlns:xlink="http://www.w3.org/1999/xlink" x="0px" y="0px" viewBox="0 0 32 32"
	 style="enable-background:new 0 0 32 32;" xml:space="preserve">
<style type="text/css">
	.st0{fill:#CCCCCC;}
	.st1{fill:#2E2E2E;}
	.st2{fill:#A3A3A3;}
	.st3{fill:#252525;}
	.st4{fill:#E4E4E4;}
	.st5{fill:#434343;}
	.st6{fill:#FF6600;}
</style>
<sodipodi:namedview  bordercolor="#666666" borderopacity="1" gridtolerance="10" guidetolerance="10" id="namedview18" inkscape:current-layer="svg16" inkscape:cx="14.1309" inkscape:cy="16" inkscape:pageopacity="0" inkscape:pageshadow="2" inkscape:window-height="480" inkscape:window-maximized="0" inkscape:window-width="640" inkscape:window-x="0" inkscape:window-y="26" inkscape:zoom="9.362793" objecttolerance="10" pagecolor="#ffffff" showgrid="false">
	</sodipodi:namedview>
<g>
	<path class="st0" d="M3,13.3L3,13.3v13.5C3,27.4,3.6,28,4.2,28h22.5c0.7,0,1.3-0.6,1.3-1.2v-2c0,0.7-0.6,1.2-1.3,1.2H4.2
		C3.6,26,3,25.4,3,24.8v-3l0,0V13.3"/>
	<path class="st1" d="M3,21.7C3,22.4,3.6,23,4.2,23h22.5c0.7,0,1.3-0.6,1.3-1.3V8.3C28,7.6,27.4,7,26.7,7H14V6.2
		C14,5.6,13.4,5,12.8,5H4.2C3.6,5,3,5.6,3,6.2V21.7"/>
	<path class="st2" d="M28,21.7c0,0.7-0.6,1.3-1.3,1.3H4.2C3.6,23,3,22.4,3,21.7v3C3,25.4,3.6,26,4.2,26h22.5c0.7,0,1.3-0.6,1.3-1.2
		V21.7"/>
	<path class="st3" d="M26.7,10H4.2C3.6,10,3,10.6,3,11.2v10.5C3,22.4,3.6,23,4.2,23h22.5c0.7,0,1.3-0.6,1.3-1.3l0,0V11.2
		C28,10.6,27.4,10,26.7,10"/>
	<path class="st4" d="M6.2,9h18.5c0.7,0,1.2,0.6,1.2,1.2v7.5c0,0.7-0.6,1.2-1.2,1.2H6.2C5.6,19,5,18.4,5,17.8v-7.5
		C5,9.6,5.6,9,6.2,9z"/>
	<path class="st1" d="M4.2,11h22.5c0.7,0,1.2,0.6,1.2,1.2v13.5c0,0.7-0.6,1.2-1.2,1.2H4.2C3.6,27,3,26.4,3,25.8V12.2
		C3,11.6,3.6,11,4.2,11z"/>
	<path class="st5" d="M12.8,5H4.2C3.6,5,3,5.6,3,6.2v1C3,6.6,3.6,6,4.2,6h8.5C13.4,6,14,6.6,14,7.2V8h12.8C27.4,8,28,8.6,28,9.2v-1
		C28,7.6,27.4,7,26.7,7H14V6.2C14,5.6,13.4,5,12.8,5"/>
	<path class="st6" d="M16,13c-3.3,0-6,2.7-6,6s2.7,6,6,6h12v-1h-8.7H16c-2.8,0-5-2.2-5-5c0-2.8,2.2-5,5-5V13z M16,15
		c-2.2,0-4,1.8-4,4s1.8,4,4,4h12v-1H16c-1.7,0-3-1.3-3-3s1.3-3,3-3c0.3,0,0.7,0.1,1,0.2v-1C16.7,15,16.3,15,16,15z M16,17
		c-1.1,0-2,0.9-2,2s0.9,2,2,2h12v-1H16c-0.6,0-1-0.4-1-1s0.4-1,1-1h1.7C17.4,17.4,16.7,17,16,17z"/>
</g>
</svg>
